X: 42972
T: Willie Hunter's Compliments To Dan R. MacDonald
R: strathspey
M: 4/4
K: Dmajor
A,2|D2 D>E F<A, C>E|F<D F<A d>f a>f|g>B e<g f>A d<f|((3efe) ((3dcB) ((3ABA) ((3GFE)|
D2 D>E F<A, C>E|F<D F<A d>f a>f|g>B e<g (3fAa ((3fed)|((3cBA) ((3GFE) D2:|
|:d>e|f>A d<f e>A c>e|d>F B<d c>F A<c|B>D G<B A>D F>A|((3GFE) ((3FED) C<E d>e|
f>A d<f ((3eca) ((3ecA)|d>c B>d ((3cae) ((3cAF)|((3BAG) ((3dcB) ((3Aag) ((3fed)|((3cBA) ((3GFE) D2:|

